projects/ccf-eui/src/assets/icons/organ-icons/organ-icon-prostate.svg

<svg width="64" height="64" viewBox="0 0 64 64" fill="currentColor" xmlns="http://www.w3.org/2000/svg">
<g clip-path="url(#clip0_1795_388)">
<path d="M35.627 55H29.1413V37.9579C29.1203 36.5675 28.3622 35.2615 27.1619 34.5242C19.4338 32.7968 14.0431 27.2986 14.0431 21.1475C14.0431 19.1884 14.5905 17.2714 15.5803 15.5861C15.475 14.6803 15.0749 13.8166 14.4431 13.1636L10 8.55019L14.5063 4L19.0969 8.61338C19.8339 9.30855 20.8236 9.72986 21.8554 9.75093C25.0983 8.06568 28.7623 7.22305 32.4052 7.26518C36.0271 7.20198 39.649 8.08674 42.8919 9.772C44.029 9.83519 45.1451 9.45601 45.9663 8.67658L50.4726 4.14746L55 8.71871L50.4305 13.2268C49.7777 13.9009 49.3776 14.7856 49.2934 15.7336C50.1357 17.3978 50.6411 19.2515 50.7043 21.1053C50.7043 26.6456 46.5559 31.5328 39.8596 33.8922C39.1437 34.145 38.4066 34.3556 37.6907 34.5242C36.4483 35.2615 35.6692 36.5886 35.6481 38.0421V55H35.627ZM31.2471 52.8934H33.5213V38.0211C33.5634 35.746 34.8269 33.7026 36.7852 32.6072L37.059 32.5019C37.7749 32.3544 38.4698 32.1437 39.1437 31.912C44.9766 29.8687 48.5985 25.7398 48.5985 21.1475C48.5353 19.5465 48.0721 17.9033 47.2929 16.4709L47.1666 16.2181V15.9442C47.2087 14.3643 47.8194 12.8686 48.9144 11.7311L52.0098 8.67658L50.4726 7.13879L47.4193 10.1933C46.0505 11.4572 44.2606 12.0471 42.4497 11.8364L42.0707 11.71C39.1015 10.1301 35.7113 9.26642 32.3842 9.35068C28.9097 9.35068 25.5826 10.109 22.5924 11.71L22.3818 11.8154H22.1292C20.4445 11.8996 18.8021 11.2466 17.6018 10.0669L14.5063 6.94919L12.9481 8.52912L15.9593 11.6679C17.0332 12.7844 17.6439 14.2379 17.7071 15.7757V16.0917L17.5386 16.3656C16.6331 17.798 16.1488 19.4411 16.1488 21.1264C16.1488 26.3296 20.9289 30.9851 27.7936 32.4808L28.0884 32.5861C29.9836 33.6815 31.205 35.7038 31.2471 37.8947V52.8513V52.8934Z" />
<path d="M41.4179 35.3668C40.5124 35.0508 39.8175 34.9665 39.2279 35.0719C39.1015 35.114 38.9752 35.1561 38.8489 35.1772C37.6065 35.9145 36.8273 37.2416 36.8063 38.6952V52.9356C36.8063 52.9356 36.8905 52.9988 36.9326 53.0198C38.6593 53.6307 43.0814 50.6183 44.8292 45.6468C46.577 40.6753 45.4399 36.7993 41.4389 35.3668H41.4179Z" />
<path d="M27.9199 38.6109C27.8989 37.2206 27.1408 35.9145 25.9405 35.1772C25.7931 35.1351 25.6247 35.0929 25.4773 35.0508C24.9298 35.0087 24.298 35.0508 23.4768 35.3668C19.4759 36.7993 18.3809 40.6753 20.1076 45.6468C21.8133 50.5341 26.2143 53.5043 27.8989 53.0198V38.6109H27.9199Z" />
</g>
<defs>
<clipPath id="clip0_1795_388">
<rect width="45" height="51"  transform="translate(10 4)"/>
</clipPath>
</defs>
</svg>

<svg xmlns="http://www.w3.org/2000/svg" width="64" height="64" fill="currentColor" viewBox="0 0 64 64"><g clip-path="url(#a)"><path d="M35.627 55h-6.486V37.958c-.02-1.39-.779-2.697-1.98-3.434-7.727-1.727-13.118-7.225-13.118-13.376 0-1.96.548-3.877 1.537-5.562a4.2 4.2 0 0 0-1.137-2.422L10 8.55 14.506 4l4.59 4.613a4.17 4.17 0 0 0 2.76 1.138c3.242-1.685 6.906-2.528 10.55-2.486 3.621-.063 7.243.822 10.486 2.507 1.137.063 2.253-.316 3.074-1.095l4.507-4.53L55 8.72l-4.57 4.508a4.12 4.12 0 0 0-1.137 2.507c.843 1.664 1.348 3.518 1.411 5.371 0 5.54-4.148 10.428-10.844 12.787-.716.253-1.453.464-2.17.632a4.16 4.16 0 0 0-2.042 3.518V55zm-4.38-2.107h2.274V38.021a6.34 6.34 0 0 1 3.264-5.414l.274-.105a17 17 0 0 0 2.085-.59c5.833-2.043 9.455-6.172 9.455-10.764a10.8 10.8 0 0 0-1.306-4.677l-.126-.253v-.274a6.3 6.3 0 0 1 1.747-4.213l3.096-3.054-1.537-1.538-3.054 3.054c-1.368 1.264-3.158 1.854-4.97 1.643l-.378-.126c-2.97-1.58-6.36-2.444-9.687-2.36-3.474 0-6.801.759-9.792 2.36l-.21.105h-.253c-1.684.085-3.327-.568-4.527-1.748l-3.096-3.118-1.558 1.58 3.011 3.139a6.27 6.27 0 0 1 1.748 4.108v.316l-.168.274a8.9 8.9 0 0 0-1.39 4.76c0 5.204 4.78 9.86 11.645 11.355l.294.105c1.896 1.096 3.117 3.118 3.16 5.309v14.998"/><path d="M41.418 35.367c-.906-.316-1.6-.4-2.19-.295-.127.042-.253.084-.38.105a4.16 4.16 0 0 0-2.042 3.518v14.24s.085.064.127.085c1.726.61 6.148-2.402 7.896-7.373 1.748-4.972.61-8.848-3.39-10.28zM27.92 38.61c-.021-1.39-.78-2.696-1.98-3.433-.147-.042-.315-.084-.463-.126-.547-.042-1.179 0-2 .316-4.001 1.432-5.096 5.308-3.37 10.28 1.706 4.887 6.107 7.857 7.792 7.373V38.61z"/></g><defs><clipPath id="a"><path d="M10 4h45v51H10z"/></clipPath></defs></svg>
